X:39
T:Tramp, Tramp, Tramp
C:Geo. F. Root
M:C
Q:1/4=100
L:1/8
K:D
%%MIDI channel 1
%%MIDI program 72
%%MIDI transpose 8
%%MIDI grace 1/8
%%MIDI ratio 3 1
A>G|F>A d>e d2 d>c|B>c d>B A2 A>G|F>A d>e f>f e>d|e6 A>G|SF>A d>e d2 d>c|
B>c d>B A2 f>e|d>c d>B c>A c>e|d6 "fine"z2||f2 f2 f>e d>B|A4 d4|e2 e2 f>e d>f|e6 "D.S. al fine"A>G|]
P:2nd Fife
F>E|D>F F>G F2 F>A|G>B B>G F2 F>E|D>F F>G A>A ^G>G|G6 F>E|SD>F F>G F2 F>A|
G>B B>G F2 A>A|B2 B>G G>G G>G|F6 "fine"z2||A2 A2 A>G F>G|F4 F4|A2 A2 d>A F>d|c6 "D.S. al fine"F>E|]

